static/images/mobile/copyright/wikipedia-tagline-wa.svg

<svg width="120" height="13" viewBox="0 0 120 13" fill="none" xmlns="http://www.w3.org/2000/svg">
<path fill-rule="evenodd" clip-rule="evenodd" d="M17.2806 7.61525C17.2806 8.71259 17.1352 8.7787 16.3287 8.81836C16.2494 8.89769 16.2494 9.17532 16.3287 9.25465C16.4511 9.25174 16.5632 9.24883 16.6699 9.24605C17.0471 9.23624 17.356 9.22821 17.8095 9.22821C18.2392 9.22821 18.5329 9.23578 18.8962 9.24516L18.9002 9.24525L18.9012 9.2453C19.0171 9.24829 19.1401 9.25146 19.277 9.25465C19.3563 9.17532 19.3563 8.89769 19.277 8.81836C18.4705 8.7787 18.3251 8.71259 18.3251 7.61525V1.52042C18.3251 0.661057 18.378 0.132217 18.378 0.132217C18.378 0.0396729 18.3251 0 18.2061 0C17.8756 0.132202 16.884 0.317307 16.3552 0.356964C16.3287 0.462723 16.3552 0.674286 16.4345 0.753601L16.4847 0.756378L16.5574 0.760132C17.1412 0.789612 17.2806 0.796646 17.2806 1.83771V7.61525ZM4.58105 9.2282H1.77821C1.77821 9.2282 0.707318 9.24142 0.059495 9.25464C-0.0198317 9.17532 -0.0198317 8.89767 0.059495 8.81836C0.98496 8.77869 1.20971 8.71259 1.20971 7.61525V2.31366C1.20971 1.21632 0.98496 1.15022 0.059495 1.11057C-0.0198317 1.03123 -0.0198317 0.753601 0.059495 0.674271C0.214299 0.677368 0.353883 0.680466 0.485364 0.683411L0.49841 0.683685C0.922318 0.693115 1.26389 0.700714 1.765 0.700714C2.28733 0.700714 2.64306 0.692764 3.07802 0.683044H3.07815H3.07845H3.07923L3.20743 0.680191L3.48371 0.674271C3.56304 0.753601 3.56304 1.03123 3.48371 1.11057C2.55825 1.15022 2.33349 1.21632 2.33349 2.31366V8.05154C2.33349 8.4614 2.57147 8.71259 2.95488 8.71259H4.44884C5.45363 8.71259 5.8106 7.93254 6.07501 6.98064C6.23366 6.96742 6.37909 6.99387 6.5113 7.04674C6.43198 7.73424 6.29977 8.5936 6.16756 9.25464C6.16756 9.25464 4.95123 9.2282 4.58105 9.2282ZM9.38846 1.99637C9.07116 1.99637 8.75385 1.65262 8.75385 1.30887C8.75385 0.991562 9.12404 0.674271 9.44134 0.674271C9.79831 0.674271 10.0759 1.04445 10.0759 1.36176C10.0759 1.65262 9.75864 1.99637 9.38846 1.99637ZM9.95696 4.98428V7.61525C9.95696 8.71259 10.1024 8.76547 10.9089 8.81836C10.9882 8.89767 10.9882 9.17532 10.9089 9.25464C10.7716 9.25145 10.6482 9.24826 10.532 9.24525C10.1669 9.23581 9.87257 9.2282 9.44134 9.2282C8.99032 9.2282 8.68236 9.23616 8.30795 9.24586L8.30391 9.24596L8.30287 9.246L8.29108 9.24632L8.27121 9.24683C8.17371 9.24936 8.07137 9.252 7.9606 9.25464C7.88127 9.17532 7.88127 8.89767 7.9606 8.81836C8.76707 8.75224 8.9125 8.71259 8.9125 7.61525V5.03717C8.9125 4.28357 8.76707 4.21747 8.05315 4.13814C8.0267 4.05882 8.00026 3.84729 8.0267 3.76796C8.93894 3.64897 9.45456 3.52998 9.83797 3.38455C9.94374 3.38455 10.0098 3.42422 10.0098 3.4771C10.0098 3.4771 9.95696 4.32324 9.95696 4.98428ZM22.1182 1.99637C21.8009 1.99637 21.4836 1.65262 21.4836 1.30887C21.4836 0.991562 21.8538 0.674271 22.1711 0.674271C22.528 0.674271 22.8057 1.04445 22.8057 1.36176C22.8057 1.65262 22.4884 1.99637 22.1182 1.99637ZM22.6867 4.98428V7.61525C22.6867 8.71259 22.8321 8.76547 23.6386 8.81836C23.7179 8.89767 23.7179 9.17532 23.6386 9.25464C23.5013 9.25145 23.3779 9.24826 23.2617 9.24525C22.8966 9.23581 22.6023 9.2282 22.1711 9.2282C21.7201 9.2282 21.4121 9.23616 21.0377 9.24586L21.0336 9.24596L21.0326 9.246L21.0208 9.24632L20.9029 9.24936L20.6903 9.25464C20.611 9.17532 20.611 8.89767 20.6903 8.81836C21.4968 8.75224 21.6422 8.71259 21.6422 7.61525V5.03717C21.6422 4.28357 21.4968 4.21747 20.7829 4.13814C20.7564 4.05882 20.73 3.84729 20.7564 3.76796C21.6687 3.64897 22.1843 3.52998 22.5677 3.38455C22.6735 3.38455 22.7396 3.42422 22.7396 3.4771C22.7396 3.4771 22.6867 4.32324 22.6867 4.98428ZM26.9665 4.42902C27.3103 4.12494 27.7069 4.00595 28.0903 4.00595C28.8968 4.00595 29.5578 4.98428 29.5578 6.26672C29.5578 7.77391 28.9496 8.9109 27.6937 8.9109C27.2838 8.9109 27.0062 8.62004 26.7418 8.28952V4.98428C26.7418 4.70665 26.7946 4.58768 26.9665 4.42902ZM26.874 4.01917C26.7814 4.0985 26.7418 4.07205 26.7418 3.95306V1.52042C26.7418 0.661057 26.7946 0.132217 26.7946 0.132217C26.7946 0.0396729 26.7418 0 26.6228 0C26.2922 0.132202 25.3007 0.317307 24.7718 0.356964C24.7454 0.462723 24.7718 0.674286 24.8512 0.753601C24.8942 0.756088 24.9351 0.758163 24.9741 0.760132C25.5579 0.789612 25.6973 0.796646 25.6973 1.83771V8.28952C25.6973 8.80513 25.6841 9.04312 25.6444 9.22821C25.7105 9.33397 25.7766 9.38686 25.9353 9.38686C26.0146 9.32076 26.1468 9.18854 26.2394 9.06955C26.3848 8.9109 26.4641 8.9109 26.6095 9.04311C26.9004 9.29431 27.297 9.36043 27.773 9.36043C29.1215 9.36043 30.6948 8.13087 30.6948 6.02875C30.6948 4.4158 29.5049 3.42422 28.3547 3.42422C27.7862 3.42422 27.2838 3.64899 26.874 4.01917ZM35.1672 3.88696C34.8499 3.88696 33.9244 4.00595 33.6732 5.49991L36.0662 5.46025C36.2116 5.46025 36.2645 5.39415 36.2645 5.27516C36.2645 4.16461 35.6695 3.88696 35.1672 3.88696ZM35.4977 8.71259C36.2645 8.71259 36.6479 8.50105 37.1371 7.99866C37.2957 8.01189 37.375 8.07799 37.4147 8.21019C36.8859 8.89767 36.1719 9.36043 35.1672 9.36043C34.2152 9.36043 33.5939 9.04312 33.1443 8.51428C32.7081 8.01189 32.523 7.29794 32.523 6.55757C32.523 4.548 34.0169 3.45067 35.1672 3.45067C37.0049 3.45067 37.4015 4.64055 37.4015 5.7511C37.4015 5.89653 37.3089 5.97586 37.1503 5.97586L33.6335 5.94942C33.6335 6.71623 33.7922 7.3244 34.0566 7.7607C34.4664 8.43497 35.0217 8.71259 35.4977 8.71259ZM44.4578 5.49991C44.709 4.00595 45.6345 3.88696 45.9518 3.88696C46.4542 3.88696 47.0492 4.16461 47.0492 5.27516C47.0492 5.39415 46.9963 5.46025 46.8508 5.46025L44.4578 5.49991ZM47.9217 7.99866C47.4326 8.50105 47.0492 8.71259 46.2823 8.71259C45.8064 8.71259 45.2511 8.43497 44.8413 7.7607C44.5768 7.3244 44.4182 6.71623 44.4182 5.94942L47.935 5.97586C48.0936 5.97586 48.1861 5.89653 48.1861 5.7511C48.1861 4.64055 47.7895 3.45067 45.9518 3.45067C44.8016 3.45067 43.3076 4.548 43.3076 6.55757C43.3076 7.29794 43.4927 8.01189 43.929 8.51428C44.3785 9.04312 44.9999 9.36043 45.9518 9.36043C46.9566 9.36043 47.6705 8.89767 48.1994 8.21019C48.1597 8.07799 48.0804 8.01189 47.9217 7.99866ZM54.6024 7.84001C54.7214 7.85323 54.8271 7.90611 54.88 8.0251C54.219 9.10922 53.5183 9.36043 52.725 9.36043C51.0592 9.36043 50.1073 8.18376 50.1073 6.47826C50.1073 4.60089 51.5087 3.42422 52.8176 3.42422C54.0868 3.42422 54.8404 3.95306 54.8404 4.68021C54.8404 5.09006 54.4702 5.26193 54.1925 5.26193C53.9149 5.26193 53.7298 5.14294 53.6901 4.78598C53.6372 4.32326 53.5315 3.86052 52.7514 3.86052C51.8789 3.86052 51.2443 4.73309 51.2443 6.18739C51.2443 7.73424 52.0507 8.71259 53.0159 8.71259C53.5844 8.71259 54.1529 8.42172 54.6024 7.84001ZM57.1945 1.30887C57.1945 1.65262 57.5118 1.99637 57.8291 1.99637C58.1992 1.99637 58.5166 1.65262 58.5166 1.36176C58.5166 1.04445 58.2389 0.674271 57.8819 0.674271C57.5646 0.674271 57.1945 0.991562 57.1945 1.30887ZM58.3976 7.61525V4.98428C58.3976 4.32324 58.4504 3.4771 58.4504 3.4771C58.4504 3.42422 58.3843 3.38455 58.2786 3.38455C57.8952 3.52998 57.3795 3.64897 56.4673 3.76796C56.4409 3.84729 56.4673 4.05882 56.4937 4.13814C57.2077 4.21747 57.3531 4.28357 57.3531 5.03717V7.61525C57.3531 8.71259 57.2077 8.75224 56.4012 8.81836C56.3219 8.89767 56.3219 9.17532 56.4012 9.25464L56.5695 9.25049L56.7435 9.246L56.7445 9.24596L56.7485 9.24586C57.123 9.23616 57.4309 9.2282 57.8819 9.2282C58.3132 9.2282 58.6075 9.23581 58.9726 9.24525L59.1727 9.25037L59.3495 9.25464C59.4288 9.17532 59.4288 8.89767 59.3495 8.81836C58.543 8.76547 58.3976 8.71259 58.3976 7.61525ZM65.3612 7.84001C65.4802 7.85323 65.586 7.90611 65.6389 8.0251C64.9778 9.10922 64.2771 9.36043 63.4839 9.36043C61.818 9.36043 60.8661 8.18376 60.8661 6.47826C60.8661 4.60089 62.2675 3.42422 63.5764 3.42422C64.8456 3.42422 65.5992 3.95306 65.5992 4.68021C65.5992 5.09006 65.229 5.26193 64.9514 5.26193C64.6737 5.26193 64.4886 5.14294 64.449 4.78598C64.3961 4.32326 64.2903 3.86052 63.5103 3.86052C62.6377 3.86052 62.0031 4.73309 62.0031 6.18739C62.0031 7.73424 62.8096 8.71259 63.7747 8.71259C64.3432 8.71259 64.9117 8.42172 65.3612 7.84001ZM68.0194 7.61525C68.0194 8.71259 67.874 8.7787 67.0675 8.81836C66.9882 8.89769 66.9882 9.17532 67.0675 9.25465C67.1899 9.25174 67.302 9.24883 67.4086 9.24605C67.7859 9.23624 68.0947 9.22821 68.5482 9.22821C68.9779 9.22821 69.2717 9.23578 69.6349 9.24516L69.639 9.24525L69.6399 9.2453C69.7558 9.24829 69.8789 9.25146 70.0158 9.25465C70.0951 9.17532 70.0951 8.89769 70.0158 8.81836C69.2093 8.7787 69.0639 8.71259 69.0639 7.61525V1.52042C69.0639 0.661057 69.1167 0.132217 69.1167 0.132217C69.1167 0.0396729 69.0639 0 68.9449 0C68.6143 0.132202 67.6228 0.317307 67.0939 0.356964C67.0675 0.462723 67.0939 0.674286 67.1733 0.753601L67.2251 0.75647L67.2962 0.760132C67.88 0.789612 68.0194 0.796646 68.0194 1.83771V7.61525ZM74.3509 9.36043C72.4868 9.36043 71.5745 7.86646 71.5745 6.51793C71.5745 4.83887 72.5926 3.42422 74.3774 3.42422C76.4266 3.42422 77.1538 5.02396 77.1538 6.39894C77.1538 7.72102 76.3209 9.36043 74.3509 9.36043ZM76.0168 6.82201C76.0168 4.87852 75.369 3.86052 74.2319 3.86052C73.1214 3.86052 72.7115 5.06361 72.7115 6.21384C72.7115 7.23184 73.2139 8.92413 74.5889 8.92413C75.2103 8.92413 76.0168 8.56717 76.0168 6.82201ZM80.7913 4.79919C81.2012 4.37613 81.73 4.03238 82.1267 4.03238C82.9728 4.03238 83.6999 4.98428 83.6999 6.47826C83.6999 7.56236 83.3165 8.9109 81.8358 8.9109C81.5978 8.9109 81.1351 8.84479 80.8971 8.63326C80.6195 8.39528 80.5798 8.32918 80.5798 7.84V5.38091C80.5798 5.10327 80.6195 4.98428 80.7913 4.79919ZM80.6856 4.3629C80.6327 4.41579 80.5534 4.42902 80.5534 4.32324C80.5534 3.84729 80.6062 3.4771 80.6062 3.4771C80.6062 3.42422 80.5401 3.38455 80.4344 3.38455C80.0642 3.52998 79.5618 3.64897 78.6495 3.76796C78.6231 3.84729 78.6495 4.05882 78.676 4.13814C79.3899 4.20424 79.5353 4.28357 79.5353 5.03717V10.6825C79.5353 11.7798 79.3899 11.8459 78.5834 11.8856C78.5041 11.9649 78.5041 12.2426 78.5834 12.3219L78.7712 12.3173L78.9257 12.3133L78.9268 12.3132L78.9308 12.3131C79.3052 12.3034 79.6132 12.2955 80.0642 12.2955C80.5765 12.2955 80.945 12.3045 81.3771 12.315H81.3774H81.3778H81.3786L81.6639 12.3219C81.7432 12.2426 81.7432 11.9649 81.6639 11.8856C80.7252 11.8327 80.5798 11.7798 80.5798 10.6825V9.25464C80.5798 9.09381 80.6145 9.10663 80.7382 9.15228L80.7649 9.16209C81.0822 9.2943 81.492 9.36041 81.9151 9.36041C82.6555 9.36041 83.3165 9.13565 83.8586 8.62003C84.48 8.01187 84.8369 7.19218 84.8369 6.12129C84.8369 4.71988 83.8454 3.42421 82.4968 3.42421C82.0077 3.42421 81.2805 3.75475 80.6856 4.3629ZM89.3661 3.88696C89.0488 3.88696 88.1233 4.00595 87.8721 5.49991L90.2651 5.46025C90.4105 5.46025 90.4634 5.39415 90.4634 5.27516C90.4634 4.16461 89.8685 3.88696 89.3661 3.88696ZM89.6966 8.71259C90.4634 8.71259 90.8468 8.50105 91.336 7.99866C91.4947 8.01189 91.574 8.07799 91.6136 8.21019C91.0848 8.89767 90.3709 9.36043 89.3661 9.36043C88.4142 9.36043 87.7928 9.04312 87.3433 8.51428C86.907 8.01189 86.7219 7.29794 86.7219 6.55757C86.7219 4.548 88.2159 3.45067 89.3661 3.45067C91.2038 3.45067 91.6004 4.64055 91.6004 5.7511C91.6004 5.89653 91.5079 5.97586 91.3492 5.97586L87.8325 5.94942C87.8325 6.71623 87.9911 7.3244 88.2555 7.7607C88.6654 8.43497 89.2207 8.71259 89.6966 8.71259ZM97.5678 7.58881C97.5678 7.84001 97.5413 7.94579 97.3562 8.10443C96.8671 8.5275 96.444 8.73903 96.1135 8.73903C95.3995 8.73903 94.6592 7.959 94.6592 6.30638C94.6592 5.35448 94.8443 4.82564 95.0426 4.54799C95.4524 3.92662 96.0077 3.88696 96.2721 3.88696C96.7481 3.88696 97.0786 4.05884 97.343 4.36292C97.5281 4.57445 97.5678 4.66699 97.5678 5.07684V7.58881ZM97.4223 8.56717C97.4752 8.51428 97.581 8.48784 97.581 8.58038C97.581 8.89769 97.7264 9.36043 97.7264 9.36043C97.8272 9.39822 97.868 9.38799 97.9632 9.36404L97.9776 9.36043C98.2685 9.12245 98.7709 8.92413 99.5773 8.83157C99.6567 8.75226 99.6567 8.55394 99.5773 8.47461C98.7312 8.40851 98.6122 8.1573 98.6122 7.50949V1.52042C98.6122 0.661057 98.6651 0.132217 98.6651 0.132217C98.6651 0.0396729 98.6122 0 98.4932 0C98.1627 0.132202 97.1711 0.317307 96.6423 0.356964C96.6159 0.462723 96.6423 0.674286 96.7216 0.753601L96.7606 0.755783L96.8446 0.760132C97.4283 0.789612 97.5678 0.796646 97.5678 1.83771V3.53C97.5678 3.62254 97.5413 3.64899 97.4488 3.64899C97.4351 3.64899 97.3888 3.634 97.3202 3.61176C97.123 3.54788 96.7412 3.42422 96.4175 3.42422C95.545 3.42422 94.9632 3.71509 94.4344 4.21748C93.8659 4.78598 93.5222 5.56601 93.5222 6.54436C93.5222 8.17053 94.3419 9.36043 95.7697 9.36043C96.2853 9.36043 96.7745 9.09601 97.4223 8.56717ZM103.611 3.88696C103.294 3.88696 102.368 4.00595 102.117 5.49991L104.51 5.46025C104.655 5.46025 104.708 5.39415 104.708 5.27516C104.708 4.16461 104.113 3.88696 103.611 3.88696ZM103.941 8.71259C104.708 8.71259 105.092 8.50105 105.581 7.99866C105.739 8.01189 105.819 8.07799 105.858 8.21019C105.33 8.89767 104.616 9.36043 103.611 9.36043C102.659 9.36043 102.038 9.04312 101.588 8.51428C101.152 8.01189 100.967 7.29794 100.967 6.55757C100.967 4.548 102.461 3.45067 103.611 3.45067C105.449 3.45067 105.845 4.64055 105.845 5.7511C105.845 5.89653 105.753 5.97586 105.594 5.97586L102.077 5.94942C102.077 6.71623 102.236 7.3244 102.5 7.7607C102.91 8.43497 103.465 8.71259 103.941 8.71259ZM109.821 11.3436C110.019 10.9866 110.191 10.6032 110.363 10.2066C111.42 7.66815 112.002 6.29317 112.703 4.81242C112.888 4.42902 113.284 4.00595 113.774 3.96629C113.853 3.88696 113.853 3.60933 113.774 3.53L113.61 3.53676C113.357 3.54738 113.141 3.55644 112.835 3.55644C112.499 3.55644 112.274 3.54944 111.989 3.54059L111.988 3.54054C111.881 3.5372 111.765 3.5336 111.632 3.53C111.552 3.60933 111.552 3.88696 111.632 3.96629C112.042 4.00595 112.465 4.08527 112.266 4.56122L110.944 7.58882C110.852 7.81357 110.746 7.84001 110.627 7.57559L109.464 4.82565L109.43 4.74718C109.214 4.24771 109.119 4.02919 109.887 3.96629C109.966 3.88696 109.966 3.60933 109.887 3.53C109.397 3.54321 108.869 3.55644 108.393 3.55644C107.943 3.55644 107.586 3.54321 107.322 3.53C107.242 3.60933 107.242 3.88696 107.322 3.96629C107.904 4.01918 108.009 4.12494 108.366 4.95786L109.86 8.43495C109.979 8.7126 110.178 9.30754 110.045 9.67772C109.9 10.1272 109.728 10.4842 109.53 10.894C109.384 11.1585 109.199 11.2775 108.869 11.2775C108.771 11.2775 108.71 11.2663 108.652 11.2558C108.601 11.2466 108.554 11.2378 108.485 11.2378C108.102 11.2378 107.904 11.6344 107.904 11.8063C107.904 12.0839 108.168 12.2955 108.525 12.2955C108.803 12.2955 109.331 12.1897 109.807 11.3436H109.821ZM117.752 3.88696C117.435 3.88696 116.51 4.00595 116.258 5.49991L118.651 5.46025C118.797 5.46025 118.85 5.39415 118.85 5.27516C118.85 4.16461 118.255 3.88696 117.752 3.88696ZM118.083 8.71259C118.85 8.71259 119.233 8.50105 119.722 7.99866C119.881 8.01189 119.96 8.07799 120 8.21019C119.471 8.89767 118.757 9.36043 117.752 9.36043C116.801 9.36043 116.179 9.04312 115.73 8.51428C115.293 8.01189 115.108 7.29794 115.108 6.55757C115.108 4.548 116.602 3.45067 117.752 3.45067C119.59 3.45067 119.987 4.64055 119.987 5.7511C119.987 5.89653 119.894 5.97586 119.736 5.97586L116.219 5.94942C116.219 6.71623 116.377 7.3244 116.642 7.7607C117.052 8.43497 117.607 8.71259 118.083 8.71259Z" fill="black"/>
</svg>

<svg xmlns="http://www.w3.org/2000/svg" width="120" height="13" fill="none"><path fill="#000" fill-rule="evenodd" d="M17.28 7.615c0 1.098-.145 1.164-.951 1.203-.08.08-.08.357 0 .437l.34-.009a37.73 37.73 0 0 1 2.226 0h.006l.376.009c.08-.08.08-.357 0-.437-.806-.04-.952-.105-.952-1.203V1.52c0-.859.053-1.388.053-1.388 0-.092-.053-.132-.172-.132-.33.132-1.322.317-1.85.357-.027.106 0 .317.078.397l.05.002.073.004c.584.03.724.037.724 1.078v5.777ZM4.582 9.228H1.778s-1.07.013-1.719.027c-.079-.08-.079-.357 0-.437.926-.04 1.15-.105 1.15-1.203V2.314C1.21 1.216.986 1.15.06 1.11-.02 1.03-.02.754.06.674l.426.01h.013C.922.694 1.264.7 1.765.7c.522 0 .878-.008 1.313-.018h.001L3.207.68l.277-.006c.079.08.079.357 0 .437-.926.04-1.15.105-1.15 1.203v5.738c0 .41.237.66.62.66H4.45c1.005 0 1.362-.78 1.626-1.731a.949.949 0 0 1 .436.066c-.079.687-.211 1.547-.343 2.208 0 0-1.217-.027-1.587-.027Zm4.807-7.232c-.317 0-.634-.343-.634-.687 0-.317.37-.635.687-.635.357 0 .635.37.635.688 0 .29-.317.634-.688.634Zm.569 2.988v2.631c0 1.098.145 1.15.952 1.203.08.08.08.357 0 .437l-.377-.01a37.796 37.796 0 0 0-2.224 0l-.004.001H8.27l-.31.009c-.08-.08-.08-.357 0-.437.806-.066.951-.105.951-1.203V5.037c0-.753-.145-.82-.859-.899-.026-.08-.053-.29-.026-.37.912-.119 1.428-.238 1.811-.383.106 0 .172.04.172.092 0 0-.053.846-.053 1.507Zm12.161-2.988c-.317 0-.634-.343-.634-.687 0-.317.37-.635.687-.635.357 0 .635.37.635.688 0 .29-.318.634-.688.634Zm.569 2.988v2.631c0 1.098.145 1.15.952 1.203.079.08.079.357 0 .437l-.377-.01c-.365-.01-.66-.017-1.09-.017-.452 0-.76.008-1.134.018h-.017l-.118.003-.213.006c-.079-.08-.079-.357 0-.437.807-.066.952-.105.952-1.203V5.037c0-.753-.145-.82-.86-.899-.026-.08-.052-.29-.026-.37.913-.119 1.428-.238 1.812-.383.105 0 .172.04.172.092 0 0-.053.846-.053 1.507Zm4.28-.555c.343-.304.74-.423 1.123-.423.807 0 1.468.978 1.468 2.26 0 1.508-.608 2.645-1.864 2.645-.41 0-.688-.291-.952-.621V4.984c0-.277.053-.396.224-.555Zm-.093-.41c-.093.08-.132.053-.132-.066V1.52c0-.859.053-1.388.053-1.388 0-.092-.053-.132-.172-.132-.33.132-1.322.317-1.851.357-.027.106 0 .317.08.397l.122.006c.584.03.723.037.723 1.078V8.29c0 .515-.013.753-.053.938.067.106.133.159.291.159.08-.066.212-.198.304-.317.146-.16.225-.16.37-.027.291.251.688.317 1.164.317 1.349 0 2.922-1.23 2.922-3.331 0-1.613-1.19-2.605-2.34-2.605-.569 0-1.071.225-1.481.595Zm8.293-.132c-.317 0-1.243.119-1.494 1.613l2.393-.04c.146 0 .198-.066.198-.185 0-1.11-.595-1.388-1.097-1.388Zm.33 4.826c.767 0 1.15-.212 1.64-.714.159.013.238.079.278.211-.53.688-1.243 1.15-2.248 1.15-.952 0-1.573-.317-2.023-.846-.436-.502-.621-1.216-.621-1.956 0-2.01 1.494-3.107 2.644-3.107 1.838 0 2.234 1.19 2.234 2.3 0 .146-.092.225-.25.225l-3.518-.027c0 .767.16 1.375.424 1.812.41.674.965.952 1.44.952Zm8.96-3.213c.252-1.494 1.178-1.613 1.495-1.613.502 0 1.097.278 1.097 1.388 0 .12-.053.185-.198.185l-2.393.04Zm3.465 2.499c-.49.502-.873.714-1.64.714-.476 0-1.03-.278-1.44-.952-.265-.437-.424-1.045-.424-1.812l3.517.027c.159 0 .251-.08.251-.225 0-1.11-.397-2.3-2.234-2.3-1.15 0-2.644 1.097-2.644 3.107 0 .74.185 1.454.621 1.956.45.53 1.07.846 2.023.846 1.005 0 1.718-.462 2.247-1.15-.04-.132-.119-.198-.277-.211Zm6.68-.159c.12.013.225.066.278.185-.661 1.084-1.362 1.335-2.155 1.335-1.666 0-2.618-1.176-2.618-2.882 0-1.877 1.402-3.054 2.71-3.054 1.27 0 2.023.53 2.023 1.256 0 .41-.37.582-.648.582-.277 0-.462-.12-.502-.476-.053-.463-.158-.925-.939-.925-.872 0-1.507.872-1.507 2.326 0 1.547.807 2.526 1.772 2.526.568 0 1.137-.291 1.586-.873Zm2.593-6.531c0 .344.317.687.634.687.37 0 .688-.343.688-.634 0-.318-.278-.688-.635-.688-.317 0-.688.318-.688.635Zm1.203 6.306v-2.63c0-.662.052-1.508.052-1.508 0-.053-.066-.092-.171-.092-.384.145-.9.264-1.812.383-.026.08 0 .29.027.37.714.08.86.146.86.9v2.577c0 1.098-.146 1.137-.953 1.203-.08.08-.08.357 0 .437l.168-.005.174-.004h.006c.374-.01.682-.018 1.133-.018.431 0 .726.008 1.09.017l.2.005.178.005c.079-.08.079-.357 0-.437-.807-.053-.952-.105-.952-1.203Zm6.963.225c.12.013.225.066.278.185-.661 1.084-1.362 1.335-2.155 1.335-1.666 0-2.618-1.176-2.618-2.882 0-1.877 1.401-3.054 2.71-3.054 1.27 0 2.023.53 2.023 1.256 0 .41-.37.582-.648.582-.277 0-.462-.12-.502-.476-.053-.463-.159-.925-.939-.925-.872 0-1.507.872-1.507 2.326 0 1.547.807 2.526 1.772 2.526.568 0 1.137-.291 1.586-.873Zm2.658-.225c0 1.098-.145 1.164-.952 1.203-.079.08-.079.357 0 .437l.342-.009a37.724 37.724 0 0 1 2.226 0h.004l.377.009c.08-.08.08-.357 0-.437-.807-.04-.952-.105-.952-1.203V1.52c0-.859.053-1.388.053-1.388 0-.092-.053-.132-.172-.132-.33.132-1.322.317-1.851.357-.026.106 0 .317.08.397l.051.002.071.004c.584.03.723.037.723 1.078v5.777Zm6.332 1.745c-1.864 0-2.776-1.494-2.776-2.842 0-1.68 1.018-3.094 2.802-3.094 2.05 0 2.777 1.6 2.777 2.975 0 1.322-.833 2.961-2.803 2.961Zm1.666-2.538c0-1.943-.648-2.961-1.785-2.961-1.11 0-1.52 1.203-1.52 2.353 0 1.018.502 2.71 1.877 2.71.621 0 1.428-.357 1.428-2.102Zm4.774-2.023c.41-.423.939-.767 1.336-.767.846 0 1.573.952 1.573 2.446 0 1.084-.383 2.433-1.864 2.433-.238 0-.7-.066-.939-.278-.278-.238-.317-.304-.317-.793V5.38c0-.277.04-.396.211-.58Zm-.105-.436c-.053.053-.133.066-.133-.04 0-.476.053-.846.053-.846 0-.053-.066-.092-.172-.092-.37.145-.872.264-1.784.383-.027.08 0 .29.026.37.714.066.86.146.86.9v5.644c0 1.098-.146 1.164-.953 1.204-.079.079-.079.357 0 .436l.188-.005.155-.004h.005c.374-.01.682-.018 1.133-.018.513 0 .881.01 1.313.02h.002l.285.007c.08-.08.08-.357 0-.436-.939-.053-1.084-.106-1.084-1.204V9.255c0-.161.035-.148.158-.103l.027.01c.317.132.727.198 1.15.198.74 0 1.401-.224 1.944-.74.621-.608.978-1.428.978-2.499 0-1.401-.992-2.697-2.34-2.697-.49 0-1.216.33-1.811.939Zm8.68-.476c-.317 0-1.243.119-1.494 1.613l2.393-.04c.145 0 .198-.066.198-.185 0-1.11-.594-1.388-1.097-1.388Zm.33 4.826c.767 0 1.15-.212 1.64-.714.159.013.238.079.278.211-.53.688-1.243 1.15-2.248 1.15-.952 0-1.573-.317-2.023-.846-.436-.502-.621-1.216-.621-1.956 0-2.01 1.494-3.107 2.644-3.107 1.838 0 2.234 1.19 2.234 2.3 0 .146-.092.225-.25.225l-3.517-.027c0 .767.158 1.375.422 1.812.41.674.966.952 1.442.952Zm7.872-1.124c0 .251-.027.357-.212.515-.489.424-.912.635-1.242.635-.715 0-1.455-.78-1.455-2.433 0-.952.185-1.48.384-1.758.41-.621.965-.661 1.23-.661.475 0 .806.172 1.07.476.185.211.225.304.225.714v2.512Zm-.146.978c.053-.053.159-.08.159.013 0 .318.145.78.145.78.101.038.142.028.237.004l.015-.004c.29-.238.793-.436 1.6-.528.079-.08.079-.278 0-.357-.847-.066-.966-.318-.966-.966V1.52c0-.859.053-1.388.053-1.388 0-.092-.053-.132-.172-.132-.33.132-1.322.317-1.85.357-.027.106 0 .317.079.397l.039.002.084.004c.583.03.723.037.723 1.078V3.53c0 .093-.027.119-.12.119a.875.875 0 0 1-.128-.037c-.197-.064-.579-.188-.902-.188-.873 0-1.455.291-1.984.793-.568.569-.912 1.349-.912 2.327 0 1.627.82 2.816 2.248 2.816.515 0 1.005-.264 1.652-.793Zm6.189-4.68c-.317 0-1.243.119-1.494 1.613l2.393-.04c.145 0 .198-.066.198-.185 0-1.11-.595-1.388-1.097-1.388Zm.33 4.826c.767 0 1.151-.212 1.64-.714.158.013.238.079.277.211-.528.688-1.242 1.15-2.247 1.15-.952 0-1.573-.317-2.023-.846-.436-.502-.621-1.216-.621-1.956 0-2.01 1.494-3.107 2.644-3.107 1.838 0 2.234 1.19 2.234 2.3 0 .146-.092.225-.251.225l-3.517-.027c0 .767.159 1.375.423 1.812.41.674.965.952 1.441.952Zm5.88 2.63c.198-.356.37-.74.542-1.136 1.057-2.539 1.639-3.914 2.34-5.395.185-.383.581-.806 1.071-.846.079-.079.079-.357 0-.436l-.164.007c-.253.01-.469.02-.775.02-.336 0-.561-.008-.846-.016h-.001a82.73 82.73 0 0 0-.356-.011c-.08.08-.08.357 0 .436.41.04.833.12.634.595l-1.322 3.028c-.092.225-.198.251-.317-.013l-1.163-2.75-.034-.079c-.216-.5-.311-.718.457-.78.079-.08.079-.358 0-.437-.49.013-1.018.026-1.494.026-.45 0-.807-.013-1.071-.026-.08.08-.08.357 0 .436.582.053.687.159 1.044.992l1.494 3.477c.119.278.318.873.185 1.243-.145.45-.317.806-.515 1.216-.146.264-.331.383-.661.383-.098 0-.159-.01-.217-.021-.051-.01-.098-.018-.167-.018-.383 0-.581.396-.581.568 0 .278.264.49.621.49.278 0 .806-.106 1.282-.952h.014Zm7.931-7.456c-.317 0-1.242.119-1.494 1.613l2.393-.04c.146 0 .199-.066.199-.185 0-1.11-.595-1.388-1.098-1.388Zm.331 4.826c.767 0 1.15-.212 1.639-.714.159.013.238.079.278.211-.529.688-1.243 1.15-2.248 1.15-.951 0-1.573-.317-2.022-.846-.437-.502-.622-1.216-.622-1.956 0-2.01 1.494-3.107 2.644-3.107 1.838 0 2.235 1.19 2.235 2.3 0 .146-.093.225-.251.225l-3.517-.027c0 .767.158 1.375.423 1.812.41.674.965.952 1.441.952Z" clip-rule="evenodd"/></svg>
